Newaita-dark/apps/24/com.github.lainsce.yishu.svg

<svg height="24pt" viewBox="0 0 24 24" width="24pt" xmlns="http://www.w3.org/2000/svg" xmlns:xlink="http://www.w3.org/1999/xlink"><linearGradient id="a" gradientUnits="userSpaceOnUse" x1="11.907391" x2="11.907391" y1="21.02545125" y2="22.01773415627"><stop offset="0" stop-opacity=".27451"/><stop offset="1" stop-opacity="0"/></linearGradient><linearGradient id="b"><stop offset="0" stop-opacity=".313725"/><stop offset=".222222" stop-opacity=".27451"/><stop offset="1" stop-opacity="0"/></linearGradient><radialGradient id="c" cx="450.90894" cy="189.57936" gradientTransform="matrix(.00000013 -.0585994 -.105479 -.00000008 39.097986 47.696501)" gradientUnits="userSpaceOnUse" r="21.166656" xlink:href="#b"/><radialGradient id="d" cx="450.90894" cy="189.57936" gradientTransform="matrix(-.00000013 .0585994 .105479 .00000008 -15.28321 -5.645609)" gradientUnits="userSpaceOnUse" r="21.166656" xlink:href="#b"/><radialGradient id="e" cx="450.90894" cy="189.57936" gradientTransform="matrix(-.00000013 -.0585994 .105479 -.00000008 -15.28321 47.696501)" gradientUnits="userSpaceOnUse" r="21.166656" xlink:href="#b"/><radialGradient id="f" cx="450.90894" cy="189.57936" gradientTransform="matrix(.00000013 .0585994 -.105479 .00000008 39.097984 -5.645609)" gradientUnits="userSpaceOnUse" r="21.166656" xlink:href="#b"/><linearGradient id="g" gradientUnits="userSpaceOnUse" x1="7.93826184373" x2="7.93826184373" y1="21.02545025" y2="2.17207831253"><stop offset="0" stop-color="#9ccc65"/><stop offset="1" stop-color="#aed581"/></linearGradient><linearGradient id="h" gradientUnits="userSpaceOnUse" x1="11.907393" x2="11.907393" y1="21.02545025" y2="2.17207784373"><stop offset="0" stop-color="#bdbdbd"/><stop offset="1" stop-color="#e0e0e0"/></linearGradient><path d="m4.464844 20.953125h14.882812v1.101563h-14.882812zm0 0" fill="url(#a)"/><path d="m19.347656 21.027344h1.988282v-.996094h-1.988282zm0 0" fill="url(#c)"/><path d="m4.464844 21.027344h-1.984375v.992187h1.984375zm0 0" fill="url(#d)"/><path d="m4.464844 21.027344h-1.984375v-.996094h1.984375zm0 0" fill="url(#e)"/><path d="m19.347656 21.027344h1.988282v.992187h-1.988282zm0 0" fill="url(#f)"/><path d="m3.472656 2.171875h16.867188c.550781 0 .996094.445313.996094.992187v16.867188c0 .550781-.445313.996094-.996094.996094h-16.867188c-.546875 0-.992187-.445313-.992187-.996094v-16.867188c0-.546874.445312-.992187.992187-.992187zm0 0" fill="url(#g)"/><path d="m3.472656 2.171875c-.550781 0-.992187.441406-.992187.992187v.125c0-.550781.441406-.992187.992187-.992187h16.867188c.550781 0 .996094.441406.996094.992187v-.125c0-.550781-.445313-.992187-.996094-.992187zm0 0" fill="#e6e6e6" fill-opacity=".392157"/><path d="m3.472656 21.027344c-.550781 0-.992187-.445313-.992187-.996094v-.121094c0 .546875.441406.992188.992187.992188h16.867188c.550781 0 .996094-.445313.996094-.992188v.121094c0 .550781-.445313.996094-.996094.996094zm0 0" fill-opacity=".196078"/><path d="m74.076259-168.671091h359.798975c11.748878 0 21.247971 9.499093 21.247971 21.164646v359.798974c0 11.748878-9.499093 21.247971-21.247971 21.247971h-359.798975c-11.665552 0-21.164645-9.499093-21.164645-21.247971v-359.798974c0-11.665553 9.499093-21.164646 21.164645-21.164646zm0 0" fill="none" stroke="#212121" stroke-linecap="round" stroke-width="3" transform="matrix(.0468795 0 0 .0468795 0 10.079087)"/><path d="m17.84375 6.132812c-.328125.011719-.628906.179688-.804688.453126l-5.320312 7.980468-4.113281-3.703125c-.261719-.238281-.632813-.320312-.96875-.214843-.339844.109374-.59375.394531-.667969.742187-.070312.347656.050781.707031.316406.941406l4.960938 4.464844c.214844.191406.5.28125.785156.246094.285156-.035157.539062-.191407.699219-.429688l5.953125-8.933593c.210937-.304688.230468-.703126.054687-1.03125-.179687-.324219-.523437-.523438-.894531-.515626zm0 0" fill="url(#h)"/><path d="m17.84375 6.132812c-.328125.011719-.628906.179688-.804688.453126l-5.320312 7.980468-4.113281-3.703125c-.3125-.289062-.777344-.34375-1.148438-.132812-.375.207031-.570312.632812-.488281 1.050781.066406-.351562.320312-.636719.660156-.75.339844-.109375.714844-.03125.976563.210938l4.113281 3.703124 5.320312-7.980468c.175782-.273438.476563-.441406.804688-.453125.480469-.011719.902344.324219.992188.800781.058593-.296875-.019532-.601562-.214844-.828125-.191406-.230469-.480469-.359375-.777344-.351563zm0 0" fill="#fff"/><path d="m18.78125 7.503906c-.023438.066406-.058594.128906-.097656.1875l-5.953125 8.929688c-.160157.238281-.414063.398437-.699219.433594-.285156.035156-.570312-.054688-.785156-.246094l-4.960938-4.464844c-.113281-.101562-.203125-.230469-.261718-.371094-.160157.390625-.054688.835938.261718 1.113282l4.960938 4.464843c.214844.191407.5.28125.785156.246094s.539062-.191406.699219-.429687l5.953125-8.933594c.1875-.273438.226562-.621094.097656-.929688zm0 0" fill-opacity=".235294"/><path d="m380.630318-84.179159c-6.999331.249976-13.415385 3.832967-17.165027 9.665743l-113.489163 170.233744-87.741621-78.992457c-5.5828-5.082848-13.498711-6.832681-20.664693-4.582896-7.249308 2.333111-12.665457 8.415863-14.248639 15.831822-1.499857 7.415958 1.08323 15.081893 6.749355 20.081416l105.823228 95.240904c4.582896 4.082944 10.665648 5.999428 16.748401 5.249499 6.082752-.749928 11.498901-4.082943 14.915242-9.165791l126.987873-190.565135c4.49957-6.49938 4.916197-14.998568 1.166555-21.9979-3.832967-6.916006-11.1656-11.1656-19.081511-10.998949zm0 0" fill="none" stroke="#212121" stroke-linecap="round" stroke-linejoin="round" stroke-width="3" transform="matrix(.0468795 0 0 .0468795 0 10.079087)"/></svg>

<?xml version="1.0" encoding="UTF-8"?>
<svg xmlns="http://www.w3.org/2000/svg" xmlns:xlink="http://www.w3.org/1999/xlink" width="24pt" height="24pt" viewBox="0 0 24 24" version="1.1">
<defs>
<linearGradient id="linear0" gradientUnits="userSpaceOnUse" x1="254" y1="233.5" x2="254" y2="254.66667" gradientTransform="matrix(0.0468795,0,0,0.0468795,-0.00000187518,10.079088)">
<stop offset="0" style="stop-color:rgb(0%,0%,0%);stop-opacity:0.27451;"/>
<stop offset="1" style="stop-color:rgb(0%,0%,0%);stop-opacity:0;"/>
</linearGradient>
<radialGradient id="radial0" gradientUnits="userSpaceOnUse" cx="450.90894" cy="189.57936" fx="450.90894" fy="189.57936" r="21.166656" gradientTransform="matrix(0.000000130628,-0.0585994,-0.105479,-0.0000000761539,39.097986,47.696501)">
<stop offset="0" style="stop-color:rgb(0%,0%,0%);stop-opacity:0.313725;"/>
<stop offset="0.222222" style="stop-color:rgb(0%,0%,0%);stop-opacity:0.27451;"/>
<stop offset="1" style="stop-color:rgb(0%,0%,0%);stop-opacity:0;"/>
</radialGradient>
<radialGradient id="radial1" gradientUnits="userSpaceOnUse" cx="450.90894" cy="189.57936" fx="450.90894" fy="189.57936" r="21.166656" gradientTransform="matrix(-0.000000130628,0.0585994,0.105479,0.0000000761539,-15.28321,-5.645609)">
<stop offset="0" style="stop-color:rgb(0%,0%,0%);stop-opacity:0.313725;"/>
<stop offset="0.222222" style="stop-color:rgb(0%,0%,0%);stop-opacity:0.27451;"/>
<stop offset="1" style="stop-color:rgb(0%,0%,0%);stop-opacity:0;"/>
</radialGradient>
<radialGradient id="radial2" gradientUnits="userSpaceOnUse" cx="450.90894" cy="189.57936" fx="450.90894" fy="189.57936" r="21.166656" gradientTransform="matrix(-0.000000130628,-0.0585994,0.105479,-0.0000000761539,-15.28321,47.696501)">
<stop offset="0" style="stop-color:rgb(0%,0%,0%);stop-opacity:0.313725;"/>
<stop offset="0.222222" style="stop-color:rgb(0%,0%,0%);stop-opacity:0.27451;"/>
<stop offset="1" style="stop-color:rgb(0%,0%,0%);stop-opacity:0;"/>
</radialGradient>
<radialGradient id="radial3" gradientUnits="userSpaceOnUse" cx="450.90894" cy="189.57936" fx="450.90894" fy="189.57936" r="21.166656" gradientTransform="matrix(0.000000130628,0.0585994,-0.105479,0.0000000761539,39.097984,-5.645609)">
<stop offset="0" style="stop-color:rgb(0%,0%,0%);stop-opacity:0.313725;"/>
<stop offset="0.222222" style="stop-color:rgb(0%,0%,0%);stop-opacity:0.27451;"/>
<stop offset="1" style="stop-color:rgb(0%,0%,0%);stop-opacity:0;"/>
</radialGradient>
<linearGradient id="linear1" gradientUnits="userSpaceOnUse" x1="169.33333" y1="233.5" x2="169.33333" y2="-168.66666" gradientTransform="matrix(0.0468795,0,0,0.0468795,0,10.079087)">
<stop offset="0" style="stop-color:rgb(61.176471%,80%,39.607843%);stop-opacity:1;"/>
<stop offset="1" style="stop-color:rgb(68.235294%,83.529412%,50.588235%);stop-opacity:1;"/>
</linearGradient>
<linearGradient id="linear2" gradientUnits="userSpaceOnUse" x1="254" y1="233.5" x2="254" y2="-168.66667" gradientTransform="matrix(0.0468795,0,0,0.0468795,0,10.079087)">
<stop offset="0" style="stop-color:rgb(74.117647%,74.117647%,74.117647%);stop-opacity:1;"/>
<stop offset="1" style="stop-color:rgb(87.843137%,87.843137%,87.843137%);stop-opacity:1;"/>
</linearGradient>
</defs>
<g id="surface1">
<path style=" stroke:none;fill-rule:nonzero;fill:url(#linear0);" d="M 4.464844 20.953125 L 19.347656 20.953125 L 19.347656 22.054688 L 4.464844 22.054688 Z M 4.464844 20.953125 "/>
<path style=" stroke:none;fill-rule:nonzero;fill:url(#radial0);" d="M 19.347656 21.027344 L 21.335938 21.027344 L 21.335938 20.03125 L 19.347656 20.03125 Z M 19.347656 21.027344 "/>
<path style=" stroke:none;fill-rule:nonzero;fill:url(#radial1);" d="M 4.464844 21.027344 L 2.480469 21.027344 L 2.480469 22.019531 L 4.464844 22.019531 Z M 4.464844 21.027344 "/>
<path style=" stroke:none;fill-rule:nonzero;fill:url(#radial2);" d="M 4.464844 21.027344 L 2.480469 21.027344 L 2.480469 20.03125 L 4.464844 20.03125 Z M 4.464844 21.027344 "/>
<path style=" stroke:none;fill-rule:nonzero;fill:url(#radial3);" d="M 19.347656 21.027344 L 21.335938 21.027344 L 21.335938 22.019531 L 19.347656 22.019531 Z M 19.347656 21.027344 "/>
<path style=" stroke:none;fill-rule:nonzero;fill:url(#linear1);" d="M 3.472656 2.171875 L 20.339844 2.171875 C 20.890625 2.171875 21.335938 2.617188 21.335938 3.164062 L 21.335938 20.03125 C 21.335938 20.582031 20.890625 21.027344 20.339844 21.027344 L 3.472656 21.027344 C 2.925781 21.027344 2.480469 20.582031 2.480469 20.03125 L 2.480469 3.164062 C 2.480469 2.617188 2.925781 2.171875 3.472656 2.171875 Z M 3.472656 2.171875 "/>
<path style=" stroke:none;fill-rule:nonzero;fill:rgb(90.196078%,90.196078%,90.196078%);fill-opacity:0.392157;" d="M 3.472656 2.171875 C 2.921875 2.171875 2.480469 2.613281 2.480469 3.164062 L 2.480469 3.289062 C 2.480469 2.738281 2.921875 2.296875 3.472656 2.296875 L 20.339844 2.296875 C 20.890625 2.296875 21.335938 2.738281 21.335938 3.289062 L 21.335938 3.164062 C 21.335938 2.613281 20.890625 2.171875 20.339844 2.171875 Z M 3.472656 2.171875 "/>
<path style=" stroke:none;fill-rule:nonzero;fill:rgb(0%,0%,0%);fill-opacity:0.196078;" d="M 3.472656 21.027344 C 2.921875 21.027344 2.480469 20.582031 2.480469 20.03125 L 2.480469 19.910156 C 2.480469 20.457031 2.921875 20.902344 3.472656 20.902344 L 20.339844 20.902344 C 20.890625 20.902344 21.335938 20.457031 21.335938 19.910156 L 21.335938 20.03125 C 21.335938 20.582031 20.890625 21.027344 20.339844 21.027344 Z M 3.472656 21.027344 "/>
<path style="fill:none;stroke-width:3;stroke-linecap:round;stroke-linejoin:miter;stroke:rgb(12.941176%,12.941176%,12.941176%);stroke-opacity:1;stroke-miterlimit:4;" d="M 74.076259 -168.671091 L 433.875234 -168.671091 C 445.624112 -168.671091 455.123205 -159.171998 455.123205 -147.506445 L 455.123205 212.292529 C 455.123205 224.041407 445.624112 233.5405 433.875234 233.5405 L 74.076259 233.5405 C 62.410707 233.5405 52.911614 224.041407 52.911614 212.292529 L 52.911614 -147.506445 C 52.911614 -159.171998 62.410707 -168.671091 74.076259 -168.671091 Z M 74.076259 -168.671091 " transform="matrix(0.0468795,0,0,0.0468795,0,10.079087)"/>
<path style=" stroke:none;fill-rule:nonzero;fill:url(#linear2);" d="M 17.84375 6.132812 C 17.515625 6.144531 17.214844 6.3125 17.039062 6.585938 L 11.71875 14.566406 L 7.605469 10.863281 C 7.34375 10.625 6.972656 10.542969 6.636719 10.648438 C 6.296875 10.757812 6.042969 11.042969 5.96875 11.390625 C 5.898438 11.738281 6.019531 12.097656 6.285156 12.332031 L 11.246094 16.796875 C 11.460938 16.988281 11.746094 17.078125 12.03125 17.042969 C 12.316406 17.007812 12.570312 16.851562 12.730469 16.613281 L 18.683594 7.679688 C 18.894531 7.375 18.914062 6.976562 18.738281 6.648438 C 18.558594 6.324219 18.214844 6.125 17.84375 6.132812 Z M 17.84375 6.132812 "/>
<path style=" stroke:none;fill-rule:nonzero;fill:rgb(100%,100%,100%);fill-opacity:1;" d="M 17.84375 6.132812 C 17.515625 6.144531 17.214844 6.3125 17.039062 6.585938 L 11.71875 14.566406 L 7.605469 10.863281 C 7.292969 10.574219 6.828125 10.519531 6.457031 10.730469 C 6.082031 10.9375 5.886719 11.363281 5.96875 11.78125 C 6.035156 11.429688 6.289062 11.144531 6.628906 11.03125 C 6.96875 10.921875 7.34375 11 7.605469 11.242188 L 11.71875 14.945312 L 17.039062 6.964844 C 17.214844 6.691406 17.515625 6.523438 17.84375 6.511719 C 18.324219 6.5 18.746094 6.835938 18.835938 7.3125 C 18.894531 7.015625 18.816406 6.710938 18.621094 6.484375 C 18.429688 6.253906 18.140625 6.125 17.84375 6.132812 Z M 17.84375 6.132812 "/>
<path style=" stroke:none;fill-rule:nonzero;fill:rgb(0%,0%,0%);fill-opacity:0.235294;" d="M 18.78125 7.503906 C 18.757812 7.570312 18.722656 7.632812 18.683594 7.691406 L 12.730469 16.621094 C 12.570312 16.859375 12.316406 17.019531 12.03125 17.054688 C 11.746094 17.089844 11.460938 17 11.246094 16.808594 L 6.285156 12.34375 C 6.171875 12.242188 6.082031 12.113281 6.023438 11.972656 C 5.863281 12.363281 5.96875 12.808594 6.285156 13.085938 L 11.246094 17.550781 C 11.460938 17.742188 11.746094 17.832031 12.03125 17.796875 C 12.316406 17.761719 12.570312 17.605469 12.730469 17.367188 L 18.683594 8.433594 C 18.871094 8.160156 18.910156 7.8125 18.78125 7.503906 Z M 18.78125 7.503906 "/>
<path style="fill:none;stroke-width:3;stroke-linecap:round;stroke-linejoin:round;stroke:rgb(12.941176%,12.941176%,12.941176%);stroke-opacity:1;stroke-miterlimit:4;" d="M 380.630318 -84.179159 C 373.630987 -83.929183 367.214933 -80.346192 363.465291 -74.513416 L 249.976128 95.720328 L 162.234507 16.727871 C 156.651707 11.645023 148.735796 9.89519 141.569814 12.144975 C 134.320506 14.478086 128.904357 20.560838 127.321175 27.976797 C 125.821318 35.392755 128.404405 43.05869 134.07053 48.058213 L 239.893758 143.299117 C 244.476654 147.382061 250.559406 149.298545 256.642159 148.548616 C 262.724911 147.798688 268.14106 144.465673 271.557401 139.382825 L 398.545274 -51.18231 C 403.044844 -57.68169 403.461471 -66.180878 399.711829 -73.18021 C 395.878862 -80.096216 388.546229 -84.34581 380.630318 -84.179159 Z M 380.630318 -84.179159 " transform="matrix(0.0468795,0,0,0.0468795,0,10.079087)"/>
</g>
</svg>
